frontend/src/assets/konflikt.svg

<svg width="33" height="33" viewBox="0 0 33 33" fill="none" xmlns="http://www.w3.org/2000/svg">
<path d="M17.6099 17.911H15.3808L15.065 9H17.9257L17.6099 17.911ZM16.4954 19.3064C16.9474 19.3064 17.3096 19.433 17.582 19.6861C17.8607 19.9393 18 20.2631 18 20.6576C18 21.0462 17.8607 21.3671 17.582 21.6202C17.3096 21.8734 16.9474 22 16.4954 22C16.0495 22 15.6873 21.8734 15.4087 21.6202C15.1362 21.3671 15 21.0462 15 20.6576C15 20.269 15.1362 19.9481 15.4087 19.695C15.6873 19.4359 16.0495 19.3064 16.4954 19.3064Z" fill="white"/>
</svg>

<svg xmlns="http://www.w3.org/2000/svg" width="33" height="33" fill="none" viewBox="0 0 33 33"><path fill="#fff" d="M17.61 17.911h-2.23L15.066 9h2.86zm-1.115 1.395q.679 0 1.087.38.418.38.418.972 0 .583-.418.962-.409.38-1.087.38-.669 0-1.086-.38a1.26 1.26 0 0 1-.409-.962q0-.583.409-.963.417-.39 1.086-.389"/></svg>
